credit-card-settings.svg

<svg fill="currentColor" viewBox="0 0 24 24"><path d="M20 4H4a2 2 0 0 0-2 2v12a2 2 0 0 0 2 2h16a2 2 0 0 0 2-2V6a2 2 0 0 0-2-2m0 7H4V8h16M7 22h2v2H7zm4 0h2v2h-2zm4 0h2v2h-2Z"/></svg>

<svg  viewBox="0 0 24 24" fill="currentColor"><path  d="M20 4H4A2 2 0 0 0 2 6V18A2 2 0 0 0 4 20H20A2 2 0 0 0 22 18V6A2 2 0 0 0 20 4M20 11H4V8H20M7 22H9V24H7V22M11 22H13V24H11V22M15 22H17V24H15Z"/></svg>
